X: 06047
T: MARTHA'S HORNPIPE
C: Bob McQuillen 15 May 82
B: Bob's Note Book 6 #47
%R: hornpipe, reel
Z: 2021 John Chambers <jc:trillian.mit.edu>
M: C
L: 1/8
K: G
GA \
| BcBA GDB,D | E2D2 D2G2 | FGAB cBAG | FAGE D2GA |\
| BcBA GDB,D | E2D2 DGBG | FAGE DGAc | B2G2 G2 :|
|: Bc \
| decA GDGA | Bdgf g2fe | dedB cedB | c2A2 A2Bc |\
| decA GDGA | Bdgb agfe | dedB cdef | g2G2 G2 :|
%%begintext align
%% Now Peter Temple has a lovely wife
%% named Martha, you see, and
%% I just couldn't leave her out!
%% I hope you like your tune, Martha!
%%endtext

%%sep 1 1 500

%%sep 1 1 500

